build/img/Miniicecream.svg

<svg width="32" height="43" viewBox="0 0 32 43" fill="none" xmlns="http://www.w3.org/2000/svg">
<path d="M15.8877 18.6239L2.3125 21.0852L7.4074 41.071C7.55508 41.6124 8.04734 42.0063 8.61344 42.0063H23.3813C23.9473 42.0063 24.4396 41.6124 24.5873 41.071L29.6824 21.0852L15.8877 18.6239ZM13.5361 14.9319C14.2163 14.9319 14.7667 14.3815 14.7667 13.7013V1.23065C14.7667 0.55043 14.2163 0 13.5361 0C12.8558 0 12.3054 0.55043 12.3054 1.23065V13.7013C12.3054 14.3815 12.8558 14.9319 13.5361 14.9319ZM18.4587 14.9319C19.1389 14.9319 19.6893 14.3815 19.6893 13.7013V1.23065C19.6893 0.55043 19.1389 0 18.4587 0C17.7784 0 17.228 0.55043 17.228 1.23065V13.7013C17.228 14.3815 17.7784 14.9319 18.4587 14.9319Z" fill="url(#paint0_linear_1_151)"/>
<path d="M31.3092 15.055C30.7185 14.7597 29.98 15.0057 29.6603 15.621L28.1587 18.6239L24.4176 13.012C24.1715 12.6675 23.8022 12.4706 23.3839 12.4706H8.61606C8.19764 12.4706 7.82844 12.6675 7.58231 13.012L3.84113 18.6239L2.33973 15.621C2.01976 15.0057 1.28137 14.7597 0.690738 15.055C0.0754119 15.375 -0.170801 16.1134 0.124556 16.704L2.31512 21.0852H29.685L31.8753 16.704C32.1709 16.1133 31.9245 15.375 31.3092 15.055V15.055ZM16 27.2385C13.9642 27.2385 12.308 28.8946 12.308 30.9304C12.308 32.9663 13.9642 34.6224 16 34.6224C18.0358 34.6224 19.6919 32.9663 19.6919 30.9304C19.6919 28.8946 18.0358 27.2385 16 27.2385Z" fill="url(#paint1_linear_1_151)"/>
<defs>
<linearGradient id="paint0_linear_1_151" x1="15.9974" y1="42.0063" x2="15.9974" y2="0" gradientUnits="userSpaceOnUse">
<stop stop-color="#FD3A84"/>
<stop offset="1" stop-color="#FFA68D"/>
</linearGradient>
<linearGradient id="paint1_linear_1_151" x1="16" y1="34.6224" x2="16" y2="12.4706" gradientUnits="userSpaceOnUse">
<stop stop-color="#FFC2CC"/>
<stop offset="1" stop-color="#FFF2F4"/>
</linearGradient>
</defs>
</svg>

<svg width="32" height="43" fill="none" xmlns="http://www.w3.org/2000/svg"><path d="M15.888 18.624L2.313 21.085l5.094 19.986c.148.541.64.935 1.206.935h14.768c.566 0 1.059-.394 1.206-.935l5.095-19.986-13.794-2.461zm-2.352-3.692c.68 0 1.23-.55 1.23-1.23V1.23a1.23 1.23 0 10-2.46 0V13.7c0 .68.55 1.23 1.23 1.23zm4.923 0c.68 0 1.23-.55 1.23-1.23V1.23a1.23 1.23 0 10-2.461 0V13.7c0 .68.55 1.23 1.23 1.23z" fill="url(#paint0_linear_1_151)"/><path d="M31.31 15.055c-.591-.295-1.33-.05-1.65.566l-1.501 3.003-3.741-5.612a1.25 1.25 0 00-1.034-.541H8.616a1.25 1.25 0 00-1.034.541l-3.74 5.612L2.34 15.62c-.32-.615-1.059-.861-1.65-.566-.615.32-.86 1.058-.565 1.649l2.19 4.381h27.37l2.19-4.381c.296-.59.05-1.329-.566-1.649zM16 27.238a3.696 3.696 0 00-3.692 3.692A3.696 3.696 0 0016 34.622a3.696 3.696 0 003.692-3.692A3.696 3.696 0 0016 27.238z" fill="url(#paint1_linear_1_151)"/><defs><linearGradient id="paint0_linear_1_151" x1="15.997" y1="42.006" x2="15.997" y2="0" gradientUnits="userSpaceOnUse"><stop stop-color="#FD3A84"/><stop offset="1" stop-color="#FFA68D"/></linearGradient><linearGradient id="paint1_linear_1_151" x1="16" y1="34.622" x2="16" y2="12.471" gradientUnits="userSpaceOnUse"><stop stop-color="#FFC2CC"/><stop offset="1" stop-color="#FFF2F4"/></linearGradient></defs></svg>
